dhis-2/dhis-support/dhis-support-system/src/main/resources/SVGs/tac_outline.svg

<?xml version="1.0" encoding="UTF-8" standalone="no"?>
<!-- Created with Inkscape (http://www.inkscape.org/) -->

<svg
   xmlns:dc="http://purl.org/dc/elements/1.1/"
   xmlns:cc="http://creativecommons.org/ns#"
   xmlns:rdf="http://www.w3.org/1999/02/22-rdf-syntax-ns#"
   xmlns:svg="http://www.w3.org/2000/svg"
   xmlns="http://www.w3.org/2000/svg"
   xmlns:sodipodi="http://sodipodi.sourceforge.net/DTD/sodipodi-0.dtd"
   xmlns:inkscape="http://www.inkscape.org/namespaces/inkscape"
   id="svg8"
   height="48"
   width="48"
   version="1.1"
   viewBox="0 0 12.7 12.7"
   sodipodi:docname="tac_outline.svg"
   inkscape:version="0.92.2 (5c3e80d, 2017-08-06)">
  <defs
     id="defs9" />
  <sodipodi:namedview
     pagecolor="#ffffff"
     bordercolor="#666666"
     borderopacity="1"
     objecttolerance="10"
     gridtolerance="10"
     guidetolerance="10"
     inkscape:pageopacity="0"
     inkscape:pageshadow="2"
     inkscape:window-width="1920"
     inkscape:window-height="1017"
     id="namedview7"
     showgrid="false"
     inkscape:zoom="5.656854266"
     inkscape:cx="43.24914389"
     inkscape:cy="32.2371515"
     inkscape:window-x="-8"
     inkscape:window-y="-8"
     inkscape:window-maximized="1"
     inkscape:current-layer="svg8"
     showguides="true"
     inkscape:guide-bbox="true" />
  <title
     id="title4753">UIO-icon</title>
  <metadata
     id="metadata5">
    <rdf:RDF>
      <cc:Work
         rdf:about="">
        <dc:format>image/svg+xml</dc:format>
        <dc:type
           rdf:resource="http://purl.org/dc/dcmitype/StillImage" />
        <dc:title>UIO-icon</dc:title>
        <dc:creator>
          <cc:Agent>
            <dc:title>Joaquín Urbano</dc:title>
          </cc:Agent>
        </dc:creator>
        <dc:rights>
          <cc:Agent>
            <dc:title>GPL</dc:title>
          </cc:Agent>
        </dc:rights>
      </cc:Work>
    </rdf:RDF>
  </metadata>
  <path
     style="fill:#333333;stroke-width:0.9999874234"
     d="M 24.0546875,4.0078125 C 18.19569907,4.017370755 12.63567728,6.596055743 8.84375,11.0625 8.550695728,11.43176849 8.617981728,11.35268653 8.488606489,11.56742797 l 7.937174761,0.006791 h 0.2890625 0.765625 c 2.02497268,-1.07621832 4.28178576,-1.640756825 6.57421875,-1.64453125 7.77305687,-1.5854e-5 14.07433914,6.31088536 14.07421875,14.09570312 -0.00614,3.05216614 -1.00131662,6.01987529 -2.8359375,8.45703126 l -29.462890625,0.007813 c -1.146785514,2.9587e-4 -1.353568217,0.64775844 -1.3515625,1.46484374 0.003137,1.27793573 0.595742954,1.55395276 1.345703125,1.56054688 0.169093184,0.001487 0.338329047,3.67e-4 0.5078125,0 H 7.642578125 8.3984375 8.50390625 9.814453125 9.91015625 v 2.60546875 l 0.55859375,0.53125 C 14.16147409,42.08360431 19.01388209,43.99359469 24.0546875,44 35.09819869,43.99993617 44.05071742,35.04741744 44.05078125,24.00390625 44.05071742,12.96039506 35.09819869,4.007876332 24.0546875,4.0078125 Z M 9.91015625,38.12109375 H 9.81445313 v 0.015625 c 0.03153901,0.0303747 0.06408625,0.0558589 0.09570312,0.0859375 z M 24.0546875,4.44921875 c 10.79985181,-2.32058e-4 19.55491956,8.75483569 19.5546875,19.5546875 2.3206e-4,10.79985181 -8.75483569,19.55491956 -19.5546875,19.5546875 -4.76362973,-0.005916 -9.36127393,-1.75052063 -12.9296875,-4.90625 H 24.0625 C 32.12504123,38.64746889 38.65838973,32.10013221 38.65820312,24.02539062 38.65838835,15.94759467 32.12027992,9.398993089 24.0546875,9.3984375 21.7189503,9.408148312 19.41960871,9.978797608 17.34960938,11.0625 H 13.38671875 L 9.416015625,11.064453 C 13.1227547,6.864344695 18.45283213,4.45567595 24.0546875,4.44921875 Z m 0.99414062,10.9921875 c -4.08444838,-2.47e-4 -7.39588438,3.30591701 -7.39648437,7.38476563 -5.2999e-4,4.07954844 3.311236,7.38701874 7.39648437,7.38671874 4.08444855,-8.2982e-4 7.39513109,-3.30797029 7.39453126,-7.38671874 -5.5e-4,-4.07804863 -3.3108827,-7.38386564 -7.39453126,-7.38476563 z m 0.001953,0.53320313 c 3.8056821,-2.1368e-4 6.89084829,3.07008634 6.890625,6.85742187 -8.6053e-4,3.78657277 -3.08570927,6.85568248 -6.890625,6.85546875 -3.80415301,-8.5945e-4 -6.88781176,-3.06965494 -6.88867187,-6.85546875 -2.2334e-4,-3.78657653 3.08375254,-6.8565623 6.88867187,-6.85742187 z M 5.015625,18.94140625 V 27.9375 30.21289062 H 16.49023438 V 24.4609375 L 16.46679688,24 c -0.23345738,-2.83596427 -2.59162421,-5.05229383 -5.4921875,-5.05859375 h -0.4296875 z m 0.513671875,0.51367187 c 1.968875195,4.8399e-4 3.975852666,-0.0178196 5.923828125,0 2.99840423,0.23202089 4.29700907,2.85731854 4.50195312,4.76757813 0.0314976,0.29358558 0.0136835,3.71312322 0.0214844,5.4765625 H 5.529296875 Z M 6,33 h 28.90039062 c -0.60473328,0.73325879 -1.28201236,1.40333974 -2.02148437,2 H 6 C 5.14913198,35 5.0390625,34.62430552 5,34 4.965404573,33.44708823 5.14913198,33 6,33 Z m 4.328125,2.515625 H 12 v 2.60546875 h -1.41796875 l -0.109375,-0.10351563 -0.14453125,-0.13867187 z m 2.18554688,0 h 1.671875 v 2.60546875 h -1.671875 z m 2.18554687,0 h 1.671875 v 2.60546875 h -1.671875 z m 2.18554687,0 h 1.671875 v 2.60546875 h -1.671875 z m 2.18554688,0 h 1.671875 v 2.60546875 h -1.671875 z m 2.18554688,0 h 1.671875 v 2.60546875 h -1.671875 z m 2.18554687,0 h 1.671875 v 2.5625 C 24.76367765,38.1055534 24.4131726,38.1198864 24.0625,38.1210937 h -0.62109375 z m 2.18554687,0 h 1.671875 v 2.20898438 c -0.55093991,0.13059496 -1.10924612,0.22777677 -1.671875,0.29101562 z m 2.18554688,0 h 1.671875 v 1.49804688 C 28.94014978,37.24726287 28.38174849,37.44622594 27.8125,37.609375 Z m 2.18554688,0 h 1.671875 l -0.001953,0.36523438 c -0.53809789,0.34037745 -1.09862922,0.64380826 -1.67773437,0.90820312 z"
     transform="scale(0.2645833333)"
     id="rect894"
     inkscape:connector-curvature="0"
     sodipodi:nodetypes="ccccccccccscccccccccccccccccccccccccccccccccccccccccccccccccscccsccsssccccccccccccccccccccccccccccccccccccccccccccccccccccc" />
</svg>

<svg width="48" height="48" viewBox="0 0 48 48" fill="none" xmlns="http://www.w3.org/2000/svg">
<path d="M24.0547 4.00781C18.1957 4.01737 12.6357 6.59606 8.84376 11.0625C8.55071 11.4318 8.618 11.3527 8.48862 11.5674L16.4258 11.5742H16.7149H17.4805C19.5055 10.498 21.7623 9.93346 24.0547 9.92969C31.8278 9.92967 38.129 16.2406 38.1289 24.0254C38.1228 27.0776 37.1276 30.0453 35.293 32.4824L5.83009 32.4902C4.68331 32.4905 4.47652 33.138 4.47853 33.9551C4.48167 35.233 5.07427 35.509 5.82423 35.5156C5.99333 35.5171 6.16256 35.516 6.33205 35.5156H7.64259H8.39845H8.50392H9.81447H9.91017V38.1211L10.4688 38.6523C14.1615 42.0836 19.0139 43.9936 24.0547 44C35.0982 43.9999 44.0507 35.0474 44.0508 24.0039C44.0507 12.9604 35.0982 4.00788 24.0547 4.00781ZM9.91017 38.1211H9.81447V38.1367C9.84601 38.1671 9.87855 38.1926 9.91017 38.2227V38.1211ZM24.0547 4.44922C34.8546 4.44899 43.6096 13.2041 43.6094 24.0039C43.6096 34.8038 34.8546 43.5588 24.0547 43.5586C19.2911 43.5527 14.6934 41.8081 11.125 38.6523H24.0625C32.1251 38.6475 38.6584 32.1001 38.6582 24.0254C38.6584 15.9476 32.1203 9.39899 24.0547 9.39844C21.719 9.40815 19.4196 9.9788 17.3496 11.0625H13.3867L9.41603 11.0645C13.1228 6.86434 18.4528 4.45568 24.0547 4.44922ZM25.0488 15.4414C20.9644 15.4412 17.653 18.7473 17.6524 22.8262C17.6518 26.9057 20.9636 30.2132 25.0488 30.2129C29.1333 30.2121 32.444 26.9049 32.4434 22.8262C32.4428 18.7481 29.1325 15.4423 25.0488 15.4414ZM25.0508 15.9746C28.8565 15.9744 31.9416 19.0447 31.9414 22.832C31.9406 26.6186 28.8557 29.6877 25.0508 29.6875C21.2466 29.6866 18.163 26.6178 18.1621 22.832C18.1619 19.0455 21.2459 15.9755 25.0508 15.9746ZM5.01564 18.9414V27.9375V30.2129H16.4902V24.4609L16.4668 24C16.2334 21.164 13.8752 18.9477 10.9746 18.9414H10.5449H5.01564ZM5.52931 19.4551C7.49819 19.4556 9.50516 19.4373 11.4531 19.4551C14.4515 19.6871 15.7501 22.3124 15.9551 24.2227C15.9866 24.5162 15.9688 27.9358 15.9766 29.6992H5.52931V19.4551ZM6.00001 33H34.9004C34.2957 33.7333 33.6184 34.4033 32.8789 35H6.00001C5.14915 35 5.03908 34.6243 5.00001 34C4.96542 33.4471 5.14915 33 6.00001 33ZM10.3281 35.5156H12V38.1211H10.582L10.4727 38.0176L10.3281 37.8789V35.5156ZM12.5137 35.5156H14.1856V38.1211H12.5137V35.5156ZM14.6992 35.5156H16.3711V38.1211H14.6992V35.5156ZM16.8848 35.5156H18.5567V38.1211H16.8848V35.5156ZM19.0703 35.5156H20.7422V38.1211H19.0703V35.5156ZM21.2559 35.5156H22.9277V38.1211H21.2559V35.5156ZM23.4414 35.5156H25.1133V38.0781C24.7637 38.1056 24.4132 38.1199 24.0625 38.1211H23.4414V35.5156ZM25.627 35.5156H27.2988V37.7246C26.7479 37.8552 26.1896 37.9524 25.627 38.0156V35.5156ZM27.8125 35.5156H29.4844V37.0137C28.9402 37.2473 28.3818 37.4462 27.8125 37.6094V35.5156ZM29.9981 35.5156H31.6699L31.668 35.8809C31.1299 36.2212 30.5694 36.5247 29.9902 36.7891L29.9981 35.5156Z" fill="#333333"/>
</svg>
